!!!COM: Bach, Johann Sebastian
!!!OPR: Inventio
!!!OTL: Inventio 10
!!!XEN: Two-part Inventions [for keyboard]
!!!ONM: No. 10
!!!ONB: In G major.
!!!SCT: BWV 781
!!!YEC: Copyright 1994, David Huron
!!!YEM: Rights to all derivative electronic formats reserved.
!! Performance duration: 1:02; performance tempo: 139.4 quarter-notes per min.
!! (Andras Schiff, piano, "Two-Part Inventions BWV 772a-786; Three-part
!! Inventions BWV 787-801" Decca 411 974-2)
**kern	**kern
*staff2	*staff1
*clefF4	*clefG2
*k[f#]	*k[f#]
*G:	*G:
*M9/8	*M9/8
*MM139.4	*MM139.4
=1-	=1-
4.r	8g
.	8b
.	8dd
4.r	8b
.	8g
.	8dd
4.r	8b
.	8g
.	8gg
=2	=2
8D	4ff#M
8F#	.
8A	8dd
8F#	8aa
8D	8ff#
8A	8dd
8F#	8aa
8D	8ff#
8c	8dd
=3	=3
4BM	8gg
.	8dd
8G	8b
8d	8ffn
8B	8dd
8G	8b
8d	8ff
8B	8dd
8G	8b
=4	=4
8c	8ee
8e	8cc
8c	8a
8A	8f#
8c	8a
8A	8cc
8F#	8ee
8G	8dd
8A	8cc
=5	=5
8B	8dd
8d	8b
8B	8g
8G	8e
8B	8g
8G	8b
8E	8dd
8F#	8cc
8G	8b
=6	=6
8A	8cc
8c	8a
8A	8f#
8F#	8d
8A	8f#
8F#	8a
8D	8cc
8E	8b
8F#	8a
=7	=7
[4.GW	8bW
.	8cc
.	8dd
8G]	8ee
8F#	8b
8E	8gg
8D	8ee
8E	8b
8C#	8gg
=8	=8
[4.F#W	8a
.	8b
.	8cc#
8F#]	8dd
8E	8a
8D	8ff#
8C#	8dd
8D	8a
8BB	8ff#
=9	=9
8E	[4.gW
8F#	.
8G	.
8A	8g]
8E	8a
8c#	8g
8A	8f#
8E	8g
8c#	8e
=10	=10
[4.dW	8f#
.	8g
.	8f#
8d]	8e
8D	8f#
8E	8d
8F#	8a
8E	8b
8D	8cc
=11	=11
[4.GW	8bW
.	8cc
.	8b
8G]	8a
8E	8b
8F#	8g
8G	8ee
8F#	8ff#
8E	8gg
=12	=12
[4.AW	8cc#W
.	8dd
.	8cc#
8A]	8b
8G	8cc#
8F#	8a
8E	8gg
8D	8aa
8C#	8bb
=13	=13
8D	8aa
8E	8gg
8F#	8ff#
8G	8ee
8A	8ff#
8B	8dd
4A	8a
.	8dd
8AA	8cc#
=14	=14
8D	4.ddW
8F#	.
8A	.
8F#	4.r
8D	.
8A	.
8F#	4.r
8D	.
8d	.
=15	=15
4.c#M	8a
.	8cc#
.	8ee
4.A	8cc#
.	8a
.	8ee
4.r	8cc#
.	8a
.	8gg
=16	=16
8D	4.ff#M
8F#	.
8A	.
8F#	4.dd
8D	.
8A	.
8F#	4.r
8D	.
8c	.
=17	=17
4.BM	8g
.	8b
.	8dd
4.G	8b
.	8g
.	8dd
4.r	8b
.	8g
.	8ffn
=18	=18
[4.CW	8ee
.	8cc
.	8a
8C]	8aa
8D	8ee
8E	8cc
8FF#	8a
8GG	8b
8AA	8cc
=19	=19
[4.BBW	8dd
.	8b
.	8g
8BB]	8gg
8C	8dd
8D	8b
8EE	8g
8FF#	8a
8GG	8b
=20	=20
8AA	[2.ccM
8C	.
8E	.
8A	.
8E	.
8C	.
8AA	4.cc_
8BB	.
8C	.
=21	=21
8D	2.cc_
8F#	.
8A	.
8d	.
8A	.
8F#	.
8D	4.cc]
8E	.
8F#	.
=22	=22
8G	[2.bM
8B	.
8d	.
8g	.
8d	.
8B	.
8G	4.b_
8A	.
8B	.
=23	=23
8E	2.b_
8G	.
8B	.
8e	.
8B	.
8G	.
8E	4.b_
8F#	.
8G	.
=24	=24
[2.CM	8b]
.	8ee
.	8dd
.	8cc
.	8dd
.	8b
4.C_	8a
.	8b
.	8g
=25	=25
2.C_	8a
.	8cc
.	8b
.	8a
.	8b
.	8g
4.C_	8f#
.	8g
.	8e
=26	=26
8C]	4f#M
8D	.
8F#	8d
8A	4aW
8F#	.
8D	8f#
8C	4ddW
8BB	.
8AA	8f#
=27	=27
8BB	8g
8GG	8b
8BB	8dd
8D	8b
8BB	8g
8GG	8dd
8D	8b
8BB	8g
8GG	8gg
=28	=28
8FF#	8dd
8DD	8ff#
8FF#	8aa
8AA	8ff#
8FF#	8dd
8DD	8aa
8AA	8ff#
8FF#	8dd
8DD	8ccc
=29	=29
8GG	8bb
8AA	8aa
8BB	8gg
8AA	8ff#
8BB	8gg
8C	8aa
8BB	8dd
8C	8gg
8D	8ff#
=30	=30
[4.EE	8gg
.	8ff#
.	8ee
4EE]	8dd
.	8cc
8E	8b
8F#	8a
8E	8b
8D	8cc
=31	=31
4GW	8b
.	8a
8BB	8g
8E	8f#
8D	8g
8C	8a
4DW	8d
.	8g
8DD	8f#
=32	=32
[4.GG	8g
.	8d
.	8B
8GG]	4.G
8BB	.
8D	.
4.G	4.r
==|!	==|!
*-	*-
!!!CDT: 1685/3//-1750/7/28
!!!OCY: Deutschland
!!!AGN: polyphony
!!!AST: baroque
!!!AMT: compound triple
!!!SCA: Bach-Werke-Verzeichnis
!!!YOR: Bach Gesellschaft
!!!AIN: cemb; clavi
!!!EEV: 1.0
!!!RDT: 1986 November
!!!YER: 1995 May 22
!!!YEN: Canada
!!!EFL: 10/15
!!!EED: David Huron
